X: 798
T: Lihuen
L: 1/16
M: 2/4
K: G
d2 e d B2 A2 [I:setbarnb 1]| 
d2 e d B2 A2 | 
d2 d2 B d B A | 
G G2 BA4 | 
A2 B2d4 | 
A2 B AG4 | 
B2 A B D2 G2 | 
A G E GD4 | 
A2 A2 B2 G2 | 
A2> B2A4 | 
B2 A B D2 G2 | 
A G E GD4 |]

@@@ Tune index: 9672
